X: 34
T: Mudgee Waltz
R: waltz
S: https://lesters-tune-a-day.blogspot.com/2020/05/set-19-mudgee-waltz-and-percy-browns.html
M: 3/4
L: 1/8
K: D
|:\
F3 G A2 | D2 E2 F2 | G4 B2 | E4 A2 | c3 B A2 | G3 A G2 | F4 G2 | A6 | 
F3 G A2 | D2 E2 F2 | G4 B2 | E4 A2 | c3 B A2 | G2 F2 E2 | D2 F2 A2 | d6 :| 
|:\
f3 e d2 | F2 A2 d2 | c4 B2 | E4 A2 | c3 B A2 | G3 A G2 | F4 G2 | A6 | 
f3 e d2 | F2 A2 d2 | c4 B2 | E4 A2 | c3 B A2 | G2 F2 E2 | D2 F2 A2 | d6 :| 
